weblate_web/static/img/icon-dash.svg

<?xml version="1.0" encoding="UTF-8"?>
<svg width="21px" height="14px" viewBox="0 0 21 14" version="1.1" xmlns="http://www.w3.org/2000/svg" xmlns:xlink="http://www.w3.org/1999/xlink">
    <!-- Generator: sketchtool 54.1 (76490) - https://sketchapp.com -->
    <title>3D72C6F5-A479-4713-BEF1-A988F58692C5</title>
    <desc>Created with sketchtool.</desc>
    <g id="Weblate" stroke="none" stroke-width="1" fill="none" fill-rule="evenodd">
        <g id="Donate" transform="translate(-346.000000, -2630.000000)" fill="#2ECCAA" fill-rule="nonzero">
            <g id="dash" transform="translate(346.000000, 2630.000000)">
                <path d="M18.5674219,11.1671094 L20.7311719,3.74210937 L20.7724219,3.54960937 C20.7845313,3.44757812 20.7907813,3.34492187 20.7911719,3.24210937 C20.7911719,1.86140625 19.671875,0.742109375 18.2911719,0.742109375 L5.95742188,0.742109375 L5.95742188,3.24210937 L18.2749219,3.24210937 L16.1499219,10.5483594 L16.1036719,10.7421094 L3.45742188,10.7421094 L3.45742188,13.2421094 L16.1036719,13.2421094 C17.3204688,13.2421875 18.3605469,12.3661719 18.5674219,11.1671094 Z" id="Path"></path>
                <rect id="Rectangle" x="0.957421875" y="5.74210937" width="7.5" height="2.5"></rect>
            </g>
        </g>
    </g>
</svg>

<svg viewBox="0 0 21 14"><g fill="#2ECCAA"><path d="M18.567 11.167l2.164-7.425.041-.192A2.5 2.5 0 0018.291.743H5.957v2.5h12.318l-2.125 7.305-.046.194H3.457v2.5h12.647a2.5 2.5 0 002.463-2.075z"/><path d="M.957 5.742h7.5v2.5h-7.5z"/></g></svg>
